img/play.svg

<svg width="427" height="390" viewBox="0 0 427 390" fill="none" xmlns="http://www.w3.org/2000/svg">
<path d="M123.086 89.5202C123.08 81.7307 131.509 76.8567 138.258 80.7468L321.226 186.219C327.975 190.109 327.981 199.846 321.238 203.745L138.412 309.464C131.669 313.363 123.234 308.501 123.228 300.711L123.086 89.5202Z" fill="#FFB800"/>
<path d="M164.569 88.692C164.565 83.212 170.495 79.7829 175.243 82.5197L358.211 187.992C362.959 190.728 362.963 197.578 358.219 200.322L175.394 306.041C170.65 308.784 164.715 305.363 164.711 299.883L164.569 88.692Z" stroke="white" stroke-width="6"/>
</svg>

<svg width="427" height="390" fill="none" xmlns="http://www.w3.org/2000/svg"><path d="M123.086 89.52c-.006-7.79 8.423-12.663 15.172-8.773l182.968 105.472c6.749 3.89 6.755 13.627.012 17.526L138.412 309.464c-6.743 3.899-15.178-.963-15.184-8.753l-.142-211.19Z" fill="#FFB800"/><path d="M164.569 88.692c-.004-5.48 5.926-8.91 10.674-6.172l182.968 105.472c4.748 2.736 4.752 9.586.008 12.33L175.394 306.041c-4.744 2.743-10.679-.678-10.683-6.158l-.142-211.191Z" stroke="#fff" stroke-width="6"/></svg>
